X:1
T:Six valses (N°1/6)
T:Six valses (N°1/6)
T:L. van Beethoven
C:L. van Beethoven
%%score { ( 1 3 ) | ( 2 4 ) }
L:1/8
M:3/4
K:Ab
V:1 treble nm="Piano" snm="Pia."
V:3 treble 
V:2 bass 
V:4 bass 
V:1
"^Moderato."{F} (E=D E) | c2 B2 A2 | G2 F2 F2 | d2 c2 B2 | A2 G2 G2 | f2 e2 e2 | a2 e2 e2 | %7
 f2 e2 e2 | A2 z ::{f} (e=d e) | _f2 e2 d2 | d2 _c2 c2 | d2 _c2 __B2 | __B2 A2 A2 | _c2 A2 A2 | %15
 e2 c2 c2 | f2 e2 e2 |1 A2 z :|2 A2 z2 |: E2 | (ACEADB) | (cCEAcC) | (BDEGBD) | (ACEAEA) | %24
 (eCEADB) | (cCEAcC) | (cC=EGcC) | (cCFAcC) | ([Bd]E)(E[Bd])([Bd]E) | ([Ac]E)(E[Ac])([Ac]E) | %30
 ([Af]F)(F[Af])([Af]F) | ([Ae]E)(E[Ae])([Ae]E) | ([Ge]E[Gd]E[Ac]E) | ([Ge]E[Gd]E[Ac]E) | %34
 ([Ge]E[Gd]E[GB]E) | A2 z2 :| %36
V:2
!p!"^dolce" z z2 | [A,,E,]6 | (D,,2 D,2) .D,2 | [B,,F,]6 | (E,,2 E,2) .E,2 | E,2 [B,D]2 [B,D]2 | %6
 E,2 [A,C]2 [A,C]2 | E,2 [B,D]2 [B,D]2 | [A,C]2 A,, :: z z2 | E,2 [B,D]2 [B,D]2 | %11
 A,,2 [E,A,_C]2 [E,A,C]2 | _C,2 [_G,__B,]2 [G,B,]2 | _F,,2 [_C,_F,A,]2 [C,F,A,]2 | %14
 _F,,2 [_C,_F,]2 [C,F,]2 | E,,2 [E,A,=C]2 [E,A,C]2 | E,,2 [E,B,D]2 [E,B,D]2 |1 [A,C]2 A,, :|2 %18
 [A,C]2 A,,2 |: z2 |!mf! A,,2 [E,A,]2 [E,G,]2 | A,,2 [E,A,]2 [E,A,]2 | E,,2 [E,G,]2 [E,G,]2 | %23
 A,,2 [E,A,]2 [E,A,]2 | A,,2 [E,A,]2 [E,G,]2 | A,,2 [E,A,]2 [E,A,]2 | C,2 [G,B,]2 [G,B,]2 | %27
 F,,2 [F,A,]2 [F,A,]2 |!ff! [E,,E,]2 [E,G,]2 [E,,E,]2 | [A,,A,]2 [A,C]2 [A,,A,]2 | %30
 [D,,D,]2 [D,F,]2 [D,,D,]2 | [C,,C,]2 [C,E,]2 [C,,C,]2 |"^diminuendo" ([E,B,]4 .[A,C]2) | %33
 ([E,B,]4 .[A,C]2) | [E,B,]4 ([E,D]2 | .[A,C]2) A,,2 :| %36
V:3
 x3 | (3cEC (3BED (3AEC | (3GDA, (3FDA, (3FDA, | (3dFD (3cFE (3BFD | (3AEB, (3GEB, (3GEB, | %5
 (3fBG (3eBG (3eBG | (3acA (3ecA (3ecA | (3fBG (3eBG (3eBG | x3 :: x3 | (3_fBG (3eBG (3dBG | %11
 (3dBE (3_cAE (3cAE | (3d_GE (3_cGE (3__BGE | (3__B_F_C (3AFC (3AFC | (3_c=D_C (3ADC (3ADC | %15
 (3eAE (3=cAE (3cAE | (3fB=G (3eBG (3eBG |1 A2 x :|2 x4 |: x2 | x6 | x6 | x6 | x6 | x6 | x6 | x6 | %27
 x6 | x6 | x6 | x6 | x6 | x6 | x6 | x6 | x4 :| %36
V:4
 x3 | x2 G,2 A,2 | x6 | x2 =A,2 B,2 | x6 | x6 | x6 | x6 | x3 :: x3 | x6 | x6 | x6 | x6 | x6 | x6 | %16
 x6 |1 x3 :|2 x4 |: x2 | x6 | x6 | x6 | x6 | x6 | x6 | x6 | x6 | x6 | x6 | x6 | x6 | x6 | x6 | x6 | %35
 x4 :| %36

